src/assets/icons/tab-bar/contact-tracing-off.svg

<?xml version="1.0" encoding="UTF-8"?>
<svg width="32px" height="24px" viewBox="0 0 32 24" version="1.1" xmlns="http://www.w3.org/2000/svg" xmlns:xlink="http://www.w3.org/1999/xlink">
    <title>tab-contact-tracing-off</title>
    <g id="tab-contact-tracing-off" stroke="none" stroke-width="1" fill="none" fill-rule="evenodd">
        <path d="M25.9142136,3 L27.3284271,4.41421356 L9.41421356,22.3284271 L8,20.9142136 L25.9142136,3 Z M18,17.9996142 C18,19.1041837 17.1045695,19.9996142 16,19.9996142 C15.5939342,19.9996142 15.2161329,19.8785994 14.9006933,19.6706669 L16.571,17.9994134 L18,17.9996142 Z M17.6290049,4.26824452 C18.620962,4.60737326 19.4526694,5.23826426 20.0417779,6.04533591 L9.086,16.9994134 L9,16.9996142 C8.44771525,16.9996142 8,16.551899 8,15.9996142 C8,15.4867784 8.38604019,15.0641071 8.88337887,15.0063419 L9,14.9996142 L9.5,14.9996142 C10.3503609,14.3132486 10.8837639,13.3140663 10.9849702,12.2325451 L11,11.9996142 L11,9.12061421 C11,8.07041369 11.3242098,6.98083719 11.8637419,6.21818284 L12.0030478,6.03454211 L12.146376,5.85664445 C13.4696822,4.28802758 15.6793387,3.60169572 17.6290049,4.26824452 Z M21.2661337,13.3046513 C21.4910108,13.8899639 21.8509355,14.4198471 22.3226732,14.8478319 L22.5,14.9996142 L23,14.9996142 C23.5329418,14.9932816 23.9756398,15.409206 24.0025237,15.941507 C24.0276153,16.4383212 23.6762562,16.9209543 23.1218468,16.9830973 L23,16.9898295 L22.998,16.9884134 L22.9742857,16.9996142 L17.571,16.9994134 L21.2661337,13.3046513 Z" id="Combined-Shape" fill="#B2B2B2" fill-rule="nonzero"></path>
    </g>
</svg>

<svg width="32" height="24" xmlns="http://www.w3.org/2000/svg"><path d="M25.914 3l1.414 1.414L9.414 22.328 8 20.914 25.914 3zM18 18a2 2 0 01-3.1 1.67L16.572 18H18zm-.371-13.732c.992.34 1.824.97 2.413 1.777L9.086 17H9a1 1 0 01-.117-1.993L9 15h.5a4.04 4.04 0 001.485-2.767L11 12V9.12c0-1.05.324-2.14.864-2.902l.139-.183.143-.178c1.324-1.569 3.533-2.255 5.483-1.589zm3.637 9.037a4.04 4.04 0 001.057 1.543L22.5 15h.5a.992.992 0 011.003.942.993.993 0 01-.881 1.041L23 16.99l-.002-.002-.024.012h-5.403l3.695-3.695z" fill="#B2B2B2" fill-rule="nonzero"/></svg>
